X:360
T:Wedding, The
R:reel
Z:Transcribed by Dave Marshall
M:C|
K:D
|:~F3B AFEF | D2DE FABd | e2fd efdA | B2ec dBAG |
F2BF AFEF | D2DE FABd | e2fd efdB | ABde d4 :|
|:A2fd edfd | A2fd edfd | B2dA BdAB | dBAF EDB,D |
F2BF AFEF | D2DE FABd | e2fd efdB | ABde d4 :|
